public/img/logo/traP_logo_full.svg

<svg width="458" height="64" viewBox="0 0 458 64" fill="none" xmlns="http://www.w3.org/2000/svg">
<g clip-path="url(#clip0_83_838)">
<path d="M56.7988 43.0554L49.964 44.7676C47.1245 48.7598 43.0367 51.693 38.3455 53.1047C33.6543 54.5164 28.6266 54.3262 24.0554 52.5641L27.7335 48.7733C32.0963 49.8853 36.7208 49.2524 40.6245 47.0091C44.5281 44.7659 47.4034 41.089 48.6394 36.7597L58.0037 39.8106C57.6701 40.9151 57.2676 41.9976 56.7988 43.0519M63.9295 34.1174C63.9741 33.4127 63.9976 32.7081 63.9999 32.0035C63.9993 29.8932 63.7916 27.7881 63.3799 25.7184L58.8774 28.2197C59.0558 29.4778 59.1453 30.7469 59.1451 32.0176C59.1451 32.5919 59.124 33.1591 59.0888 33.7228L49.2876 32.8631C49.2876 32.5778 49.3088 32.2889 49.3088 32C49.3112 28.2337 48.0786 24.5704 45.7998 21.5717L45.3559 21.924C46.4443 23.3681 47.2914 24.9791 47.8643 26.6943L47.3675 26.9585C47.9038 28.5901 48.1773 30.2966 48.1778 32.0141C48.1778 32.2713 48.1778 32.5285 48.1567 32.7821L40.0924 32.0599C40.086 32.6736 40.0104 33.2846 39.8669 33.8813L47.5613 36.4109C46.5984 39.8004 44.5571 42.7837 41.7466 44.9089C38.9361 47.0341 35.5094 48.1855 31.9858 48.1885C30.8574 48.1898 29.732 48.0717 28.6284 47.8362L33.4796 42.8369L22.0261 41.4665L21.1665 30.6295L11.5767 40.2933C9.75137 35.7942 9.46219 30.8184 10.7541 26.1382C12.046 21.4579 14.8467 17.335 18.7215 14.4093L19.3557 11.9432C23.1369 9.54588 27.5227 8.27498 31.9999 8.2792C32.5566 8.2792 33.1062 8.30034 33.6522 8.33909L35.3328 11.1575C37.8605 11.5606 40.293 12.424 42.5092 13.7047L43.4534 12.8134C41.1422 11.4244 38.5967 10.4692 35.9422 9.99494L34.2441 7.13773C33.4925 7.07666 32.7445 7.04613 31.9999 7.04613C27.7246 7.03495 23.5187 8.12707 19.789 10.2169L20.4936 7.39844C24.0903 5.71376 28.0142 4.84285 31.9858 4.84774C32.8208 4.84774 33.6452 4.89001 34.452 4.964L36.9534 0.384014C35.3144 0.130095 33.6584 0.00171657 31.9999 0C26.3288 0.00210078 20.7601 1.51078 15.8635 4.37167C10.9669 7.23255 6.91822 11.3429 4.13174 16.2823C1.34526 21.2216 -0.0789913 26.8125 0.00470815 32.483C0.0884076 38.1535 1.67705 43.7 4.6081 48.5549L1.28585 62.9642L15.9911 59.7124C20.1642 62.1212 24.8272 63.5569 29.6324 63.9125C34.4376 64.2682 39.2611 63.5346 43.7433 61.7664C48.2255 59.9982 52.2508 57.2411 55.5191 53.7006C58.7873 50.1601 61.2142 45.9276 62.6189 41.3185L64.8701 42.0548C65.6356 39.5338 66.1084 36.9332 66.2794 34.3041L63.9224 34.1033L63.9295 34.1174Z" fill="white"/>
<path d="M217.778 37.6651H186.899V20.9799H206.733L217.778 29.7875V37.6757V37.6651ZM173.687 50.866H155.579L147.539 43.0906V40.9028H173.687V50.866ZM183.65 17.7492V37.6721H176.935V30.9431H115.909V24.0942H112.671V50.8695H76.5773V34.1737H106.086V30.9431H76.5773V24.0942H73.3396V54.1002H115.909V43.8269L125.946 34.1737H173.687V37.658H144.312V54.0931H176.935V40.9028H183.661V54.1002H186.899V40.9028H221.012V17.7422L183.65 17.7492Z" fill="white"/>
<path d="M243.726 3.42441H232.938V62.1962H243.726V3.42441Z" fill="white"/>
<path d="M252.107 7.50764V5.23879H261.411V3.42441H265.946V5.23879H275.246V7.50764H265.946V8.86754H274.337V18.3798H268.701L275.239 23.3685V27.9168L265.938 20.8495V27.9168H261.411V20.8495L252.11 27.9168V23.3826L258.653 18.3939H253.016V8.88164H261.411V7.50764H252.107ZM257.536 16.1251H261.411V14.7652H257.536V16.1251ZM269.786 16.1251V14.7652H265.942V16.1251H269.786ZM257.536 11.1364V12.4963H261.411V11.1364H257.536ZM269.786 11.1364H265.942V12.4963H269.8L269.786 11.1364Z" fill="white"/>
<path d="M278.266 7.95859V5.69326H287.13V3.42441H291.664V5.69326H300.51V7.95859H278.266ZM279.626 18.3939V8.88164H299.133V18.3939H291.646V23.837C291.646 26.5569 290.437 27.9168 288.018 27.9168H285.069V25.6514C286.431 25.6514 287.112 25.0466 287.112 23.837V18.3939H279.626ZM284.163 16.1251H294.595V11.1364H284.163V16.1251ZM277.822 27.9168L280.993 19.2993H285.527L282.356 27.9168H277.822ZM300.958 27.9168H296.409L293.239 19.2993H297.769L300.94 27.9168H300.958Z" fill="white"/>
<path d="M304.425 6.14422V3.87537H325.743V6.1407H317.351V25.6514H326.652V27.9168H303.516V25.6514H312.817V6.14422H304.425Z" fill="white"/>
<path d="M329.22 27.9168V24.288L337.006 20.2083H329.22V17.9394H338.521V17.263H330.58V14.9906H338.521V14.3107H329.674V12.0418H333.303L332.398 9.32201H329.674V7.04612H331.489L330.58 3.41736H334.892L335.797 7.04612H336.252V3.4244H340.56V7.04612H341.033V3.4244H345.341V7.04612H345.796L346.669 3.4244H350.978L350.087 7.04612H351.901V9.31497H349.178L348.272 12.0348H351.901V14.3036H343.055V14.9836H350.992V17.263H343.055V17.943H352.356V20.2118H344.556L352.345 24.2915V27.9203L343.055 23.0408V27.9168H338.521V23.0408L329.22 27.9168ZM343.499 12.0418L344.404 9.32201H337.157L338.066 12.0418H343.499Z" fill="white"/>
<path d="M354.924 10.6819V8.41307H363.506L365.81 3.42441H370.799L368.513 8.41307H378.074V10.6819H369.002L378.515 27.9168H373.3L365.775 14.3107L359.465 27.9168H354.473L362.449 10.6819H354.924Z" fill="white"/>
<path d="M381.083 13.3876V7.50764H403.31V13.3876H398.772V12.7218L395.601 17.485H403.764V19.7538H395.147V23.3826C395.147 26.4054 393.937 27.9168 391.518 27.9168H388.347V25.6514C389.858 25.6514 390.613 24.8951 390.613 23.3826V19.7538H380.635V17.485H390.613L392.727 14.3142H383.803V13.3876H381.083ZM382.443 7.04612L381.083 3.41736H385.163L386.526 7.04612H382.443ZM390.606 7.04612L389.246 3.41736H393.329L394.689 7.04612H390.606ZM401.947 7.04612H397.867L399.227 3.41736H403.31L401.947 7.04612ZM398.776 9.76592H385.621V12.0348H398.776V9.76592Z" fill="white"/>
<path d="M259.896 60.1493H252.639V57.8804H256.722C258.535 57.8804 259.442 57.1242 259.442 55.6116V45.6343H251.73V43.3654H268.059V45.6343H263.98V55.6116C263.98 58.6391 262.619 60.1516 259.896 60.1493ZM253.093 38.8312V36.5624H266.696V38.8312H253.093ZM268.401 41.6497L266.587 39.6838L268.401 37.6827L270.215 39.6838L268.401 41.6497ZM272.104 41.6497L270.289 39.6838L272.104 37.6827L273.918 39.6838L272.104 41.6497Z" fill="white"/>
<path d="M287.147 60.1493H276.715V57.8804H283.762C285.727 57.8804 286.71 57.1242 286.71 55.6116V40.1911H291.245V55.6116C291.245 58.6391 289.884 60.1516 287.161 60.1493H287.147ZM275.81 38.8312V36.5624H283.519V38.8312H275.81ZM275.81 45.1727V42.9109H283.519V45.1798L275.81 45.1727ZM288.539 39.247L286.725 37.2811L288.539 35.2765L290.353 37.2811L288.539 39.247ZM292.245 39.247L290.431 37.2811L292.245 35.2765L294.06 37.2811L292.245 39.247Z" fill="white"/>
<path d="M299.51 60.1493V57.8804H301.779C303.594 57.8804 304.501 56.9738 304.498 55.1606V46.0887H299.51C299.51 48.8085 297.997 50.1684 294.972 50.1684H292.707V47.9137H293.158C294.37 47.9137 294.972 47.3077 294.972 46.0993V35.6534H299.51V37.9223H309.022V55.1606C309.022 58.4864 307.813 60.1493 305.393 60.1493H299.51ZM304.498 40.1911H299.51V43.8199H304.498V40.1911Z" fill="white"/>
<path d="M310.851 60.1493L312.665 37.4678H317.199L315.385 60.1493H310.851ZM318.108 60.1493V35.6534H322.642V57.8804H323.097C324.305 57.8804 324.911 57.1265 324.911 55.6116V50.6229H329.449V55.6116C329.449 58.6391 328.088 60.1516 325.366 60.1493H318.108Z" fill="white"/>
<path d="M331.64 42.0055V38.3767L338.214 35.6534L344.792 38.3767V42.0055L340.483 40.244V42.0055H344.337V50.4609H336.587V51.0844H344.337V60.1563H333.909V58.342H331.64L332.546 42.0125H335.949V40.251L331.64 42.0125V42.0055ZM345.26 54.2552V37.9223H349.344V54.2552H345.26ZM347.984 60.1528V57.884H348.431C349.639 57.884 350.245 57.2815 350.245 56.0696V36.1079H354.773V56.0661C354.773 58.7906 353.413 60.1516 350.693 60.1493L347.984 60.1528ZM336.04 40.1946H340.423L338.214 39.2822L336.023 40.1911L336.04 40.1946ZM336.985 44.2779L336.907 45.1833H339.817V44.2779H336.985ZM336.794 47.3007L336.756 48.2096H339.817V47.3007H336.794ZM338.457 57.8699H339.817V53.3462H338.457V57.8699Z" fill="white"/>
<path d="M364.148 60.1493H359.613V47.7868L357.344 52.4373V46.5397L362.333 35.6534H365.504L364.144 38.4507L364.148 60.1493ZM372.314 60.1493H367.776V45.6343L364.606 51.9758V43.3654L368.234 35.6534H372.768L371.409 38.3767H380.491V40.6456H372.328V44.2744H380.037V46.5397H372.328V50.1684H380.037V52.4373H372.328V60.1493H372.314Z" fill="white"/>
<path d="M383.049 60.1493V36.1079H406.181V60.1493H401.647V38.3767H387.583V60.1493H383.049ZM388.492 42.0055V39.7366H400.738V42.0055H388.492ZM388.946 55.6116V43.3654H400.283V55.6116H388.946ZM393.026 53.3462H396.197V45.6342H393.026V53.3462Z" fill="white"/>
<path d="M419.185 38.3768V36.1079H430.98L428.257 44.7429H432.34V47.0118H427.802V55.6292C427.802 58.6567 426.593 60.1693 424.173 60.1669H421.454V57.8981C422.662 57.8981 423.268 57.1441 423.268 55.6292V46.9942H418.73V44.7429H423.719L425.724 38.4014L419.185 38.3768ZM409.672 60.1493V57.8804H411.487C413.3 57.8804 414.208 56.9738 414.21 55.1606V54.2552L408.767 52.8953L409.119 40.6491H408.327V38.3803H409.158L409.232 35.657H413.315L413.241 38.3803H418.304V53.0081L419.667 53.3604V55.6257L418.304 55.2734C418.278 58.5263 417.069 60.1516 414.675 60.1493H409.672ZM414.21 40.6456H413.189L412.885 51.6446L414.21 51.9969V40.6456Z" fill="white"/>
<path d="M434.908 50.172V47.9137H457.135V50.1825H444.889L441.366 57.891H450.966L448.965 51.5495H453.954L456.674 60.1669H435.355L439.89 50.1896L434.908 50.172ZM437.177 46.0887V43.8199H454.866V46.0887H437.177ZM434.454 44.2744V40.6456L446.02 35.6534L457.586 40.6456V44.2744L446.02 39.2822L434.454 44.2744Z" fill="white"/>
</g>
<defs>
<clipPath id="clip0_83_838">
<rect width="457.59" height="64" fill="white"/>
</clipPath>
</defs>
</svg>

<svg xmlns="http://www.w3.org/2000/svg" width="458" height="64" fill="none"><g fill="#fff" clip-path="url(#a)"><path d="m56.799 43.055-6.835 1.713a22.06 22.06 0 0 1-25.909 7.796l3.678-3.79A17.3 17.3 0 0 0 48.64 36.76l9.365 3.05a28 28 0 0 1-1.205 3.242m7.13-8.935q.068-1.056.07-2.113c0-2.11-.207-4.216-.62-6.286l-4.502 2.502a27 27 0 0 1 .212 5.503l-9.801-.86c0-.285.02-.574.02-.863A17.2 17.2 0 0 0 45.8 21.572l-.444.352a16.7 16.7 0 0 1 2.508 4.77l-.496.265c.536 1.631.81 3.338.81 5.055 0 .257 0 .514-.021.768l-8.065-.722a8 8 0 0 1-.225 1.821l7.694 2.53a16.206 16.206 0 0 1-15.575 11.777 16 16 0 0 1-3.358-.352l4.852-5-11.454-1.37-.86-10.836-9.59 9.663a22.05 22.05 0 0 1 7.145-25.884l.635-2.466A23.57 23.57 0 0 1 33.652 8.34l1.68 2.819a20.9 20.9 0 0 1 7.177 2.547l.944-.892a22.1 22.1 0 0 0-7.51-2.818l-1.699-2.857A28 28 0 0 0 32 7.046a24.85 24.85 0 0 0-12.211 3.17l.705-2.818a27 27 0 0 1 13.958-2.434l2.501-4.58a32.01 32.01 0 0 0-32.345 48.17l-3.322 14.41 14.705-3.252A32.013 32.013 0 0 0 62.62 41.318l2.251.737a34.4 34.4 0 0 0 1.41-7.75l-2.358-.202zM217.778 37.665h-30.879V20.98h19.834l11.045 8.808v7.888zm-44.091 13.201h-18.108l-8.04-7.775v-2.188h26.148zm9.963-33.117v19.923h-6.715v-6.729h-61.026v-6.849h-3.238V50.87H76.577V34.174h29.509v-3.23H76.577v-6.85H73.34V54.1h42.569V43.827l10.037-9.653h47.741v3.484h-29.375v16.435h32.623v-13.19h6.726V54.1h3.238V40.903h34.113v-23.16zM243.726 3.424h-10.788v58.772h10.788zM252.107 7.508v-2.27h9.304V3.425h4.535V5.24h9.3v2.269h-9.3v1.36h8.391v9.512h-5.636l6.538 4.989v4.548l-9.301-7.068v7.068h-4.527v-7.068l-9.301 7.068v-4.534l6.543-4.99h-5.637V8.883h8.395V7.508zm5.429 8.617h3.875v-1.36h-3.875zm12.25 0v-1.36h-3.844v1.36zm-12.25-4.989v1.36h3.875v-1.36zm12.25 0h-3.844v1.36h3.858zM278.266 7.959V5.693h8.864V3.424h4.534v2.27h8.846v2.265zm1.36 10.435V8.882h19.507v9.512h-7.487v5.443q0 4.08-3.628 4.08h-2.949V25.65q2.043 0 2.043-1.814v-5.443zm4.537-2.269h10.432v-4.989h-10.432zm-6.341 11.792 3.171-8.618h4.534l-3.171 8.618zm23.136 0h-4.549l-3.17-8.618h4.53l3.171 8.618zM304.425 6.144V3.875h21.318v2.266h-8.392v19.51h9.301v2.266h-23.136V25.65h9.301V6.144zM329.22 27.917v-3.629l7.786-4.08h-7.786V17.94h9.301v-.676h-7.941v-2.272h7.941v-.68h-8.847v-2.27h3.629l-.905-2.719h-2.724V7.046h1.815l-.909-3.629h4.312l.905 3.63h.455V3.423h4.308v3.622h.473V3.424h4.308v3.622h.455l.873-3.622h4.309l-.891 3.622h1.814v2.269h-2.723l-.906 2.72h3.629v2.269h-8.846v.68h7.937v2.279h-7.937v.68h9.301v2.269h-7.8l7.789 4.08v3.628l-9.29-4.88v4.877h-4.534V23.04zm14.279-15.875.905-2.72h-7.247l.909 2.72zM354.924 10.682V8.413h8.582l2.304-4.989h4.989l-2.286 4.99h9.561v2.268h-9.072l9.513 17.235H373.3l-7.525-13.606-6.31 13.606h-4.992l7.976-17.235zM381.083 13.388v-5.88h22.227v5.88h-4.538v-.666l-3.171 4.763h8.163v2.269h-8.617v3.629q0 4.533-3.629 4.534h-3.171V25.65q2.266 0 2.266-2.268v-3.63h-9.978v-2.268h9.978l2.114-3.17h-8.924v-.927zm1.36-6.342-1.36-3.629h4.08l1.363 3.63zm8.163 0-1.36-3.629h4.083l1.36 3.63zm11.341 0h-4.08l1.36-3.629h4.083zm-3.171 2.72h-13.155v2.269h13.155zM259.896 60.15h-7.257v-2.27h4.083q2.72 0 2.72-2.268v-9.978h-7.712v-2.269h16.329v2.27h-4.079v9.977q0 4.541-4.084 4.537m-6.803-21.319v-2.269h13.603v2.27zm15.308 2.819-1.814-1.966 1.814-2.001 1.814 2zm3.703 0-1.815-1.966 1.815-2.001 1.814 2zM287.147 60.15h-10.432v-2.27h7.047q2.948 0 2.948-2.268v-15.42h4.535v15.42q0 4.541-4.084 4.537zM275.81 38.83v-2.269h7.709v2.27zm0 6.342V42.91h7.709v2.269zm12.729-5.926-1.814-1.966 1.814-2.005 1.814 2.005zm3.706 0-1.814-1.966 1.814-2.005 1.815 2.005zM299.51 60.15v-2.27h2.269q2.723 0 2.719-2.72V46.09h-4.988q0 4.08-4.538 4.08h-2.265v-2.255h.451q1.816 0 1.814-1.815V35.653h4.538v2.27h9.512V55.16q0 4.988-3.629 4.988zm4.988-19.959h-4.988v3.629h4.988zM310.851 60.15l1.814-22.682h4.534l-1.814 22.681zm7.257 0V35.652h4.534V57.88h.455q1.813.002 1.814-2.268v-4.99h4.538v4.99q0 4.541-4.083 4.537zM331.64 42.006v-3.63l6.574-2.723 6.578 2.724v3.628l-4.309-1.761v1.761h3.854v8.456h-7.75v.623h7.75v9.072h-10.428v-1.814h-2.269l.906-16.33h3.403v-1.761l-4.309 1.762zm13.62 12.25V37.921h4.084v16.333zm2.724 5.897v-2.269h.447c1.208 0 1.814-.602 1.814-1.814V36.108h4.528v19.958q0 4.087-4.08 4.083zM336.04 40.195h4.383l-2.209-.913-2.191.91zm.945 4.083-.078.905h2.91v-.905zm-.191 3.023-.038.909h3.061v-.91zm1.663 10.569h1.36v-4.524h-1.36zM364.148 60.15h-4.535V47.786l-2.269 4.65V46.54l4.989-10.887h3.171l-1.36 2.798zm8.166 0h-4.538V45.633l-3.17 6.342v-8.61l3.628-7.713h4.534l-1.359 2.724h9.082v2.269h-8.163v3.628h7.709v2.266h-7.709v3.628h7.709v2.27h-7.709v7.711zM383.049 60.15V36.107h23.132v24.041h-4.534V38.377h-14.064v21.772zm5.443-18.144v-2.27h12.246v2.27zm.454 13.606V43.365h11.337v12.247zm4.08-2.266h3.171v-7.712h-3.171zM419.185 38.377v-2.27h11.795l-2.723 8.636h4.083v2.269h-4.538v8.617q0 4.541-3.629 4.538h-2.719v-2.269q1.813.002 1.814-2.269v-8.635h-4.538v-2.251h4.989l2.005-6.342zm-9.513 21.772V57.88h1.815q2.72 0 2.723-2.72v-.905l-5.443-1.36.352-12.246h-.792V38.38h.831l.074-2.723h4.083l-.074 2.723h5.063v14.628l1.363.352v2.266l-1.363-.353q-.038 4.88-3.629 4.876zm4.538-19.503h-1.021l-.304 10.999 1.325.352zM434.908 50.172v-2.258h22.227v2.268h-12.246l-3.523 7.709h9.6l-2.001-6.341h4.989l2.72 8.617h-21.319l4.535-9.977zm2.269-4.083v-2.27h17.689v2.27zm-2.723-1.815v-3.628l11.566-4.993 11.566 4.993v3.628l-11.566-4.992z"/></g><defs><clipPath id="a"><path fill="#fff" d="M0 0h457.59v64H0z"/></clipPath></defs></svg>
